X: 20312
Q: "Jig."
M: 6/8	% The book has 9/8, but that's wrong.
L: 1/8
K: A
e !segno!|\
cBA A<EA | A<EA A<EA |\
cBA Acd | {d}f3 fga |\
cBA A<EA | A<EA A<EA |\
cde efe | efe efe |\
agf edc | dBB B2A |\
cde efe | efe efe |\
eag fed | cBA edc !segno!|]


